X: 40658
T: Top Of The Hill, The
R: slip jig
M: 9/8
K: Gmajor
g/e/|dBG GAG AEE|GAG A2 B c2e|
dBG GAG AEE|GAG AGE G2:|
M:12/8
D|GAG G2B ded d2 B|GAG B2 d e3 g3|
GAG G2 B ded d2 c|BAG AGE G3 G2 D|
GAG G2 B ded d2 B|GAG B2 d e3 g3|
gfe fed edc d2 c|BAG AGE G3 G2:|

